X:1
T:Title
%%score [ 1 2 3 4 ]
L:1/8
Q:1/4=70
M:2/4
K:Eb
V:1 treble nm="Soprano" snm="S."
V:2 treble nm="Contralto" snm="C."
V:3 treble-8 nm="Tenor" snm="T."
V:4 bass nm="Baixo" snm="B."
V:1
!p! G3 G | G2 !fermata!z2 | G3 G | G2 !fermata!z2 |!pp! G4 | G4"^," | G4- | G2 c2 | A4- | A2 B-A | %10
w: Do- mi-|ne.|Do- mi-|ne.|Je-|su,|Je-|­ su|te-|* de- *|
 G4- |!sfz! G2 A-G | F4- | !breath!F2 GF |!p! E4- | E2 E-D | !breath!DG G2- | G2 GG | G4 | %19
w: si-|* de- *|ro|_ de- *|si-|* de- *|ro, te vo-|* lo, te|quae-|
 !breath!G3!sfz! c | c2 B2 | B4 | A4 | G>G G2 | G4 |!p! A2 z A | G2 G2 | ^F2 F2 | =F3 F | E3 G | %30
w: ro, os-|ten- de|mi-|hi|fa- ci em|tu-|am, os-|ten- de|mi- hi|fa- ci|em _|
 G2- ^F2 | !breath!G2 G2 | =A2 A2 | =B4 | !breath!c2 G2- | G4 |!pp! F3 A | G2 G2 | G4- | G4 | %40
w: tu- *|am, et|sal- vus|e-|ro, sal-|­|vus et|sal- vus|e-||
 G2 z2 |] %41
w: ro.|
V:2
!p! E3 E | E2 !fermata!z2 | F3 F | F2 !fermata!z2 |!pp! (F2 E2) | F4"^," | E2- F2 | E2 E2- | %8
w: Do- mi-|ne.|Do- mi-|ne.|Je- *|su,|Je- *|su te|
 E2"^Cresc." F-E | D4- | D2 E-D |!sfz! C4- | !breath!C2 DC | =B,4 |!p! C4- | C2 C2 | =B, z z E | %17
w: _ de- *|si-|* de- *|ro,|* de- *|si-|­-|­ de-|ro, te|
 F2 E z | z E F2 | !breath!E2!sfz! =E2 | F3 F | G4 | (C2 F2) | F>F F2 | (F2 =E2) |!p! F2 z F | %26
w: vo- lo,|te quae-|ro, os-|ten- de|mi-|hi *|fa- ci em|tu- *|am,- os-|
 (=DC) (DC) | =A,2 D2 | D3 D | (C2 ED) | (C2 D2) | !breath!D2 G2 | ^F2 F2 | =F4 | E4 | (D3 =E) | %36
w: ten- * de _|mi- hi|fa- ci|em _ _|tu- *|am, et|sal- vus|e-|ro,|sal- *|
!pp! F3 F | F2 E2 | (D4 | D4) | E2 z2 |] %41
w: vus et|sal- vus|e-||ro.|
V:3
!p! c3 c | c2 !fermata!z2 | d3 d | d2 !fermata!z2 |!pp! (d2 c2) | =B4"^," | (c2 =B2) | c4 | %8
w: Do- mi-|ne.|Do- mi-|ne.|Je- *|su,|Je- *|su|
"^Cresc." c4 | F4 | _B4 |!sfz! E4 | !breath!A4 | D4 |!p! G4 | =A4 | G2 z c | (=Bd) c z | %18
w: te|de-|si-|de-|ro,|de-|si-|de-|ro, te|vo- * lo,|
 z c (=Bd) | !breath!c3!sfz! c | F2 _d2 | c4 | (c2 _d2) | _d>d =d2 | c4 |!p! c2 z c | (=Bc) (Bc) | %27
w: te quae- *|ro, os-|ten- de|mi-|hi *|fa- ci em|tu-|am, os-|ten- * de _|
 c2 =A2 | G3 G | G4 | c4 | !breath!=B2 B2 | c2 c2 | (d4 | c4) | c2 (=B_B) |!pp! A3 c | d2 c2 | %38
w: mi- hi|fa- ci|em|tu-|am, et|sal- vus|e-||ro, sal- *|vus et|sal- vus|
 (c4 | =B4) | c2 z2 |] %41
w: e-||ro.|
V:4
!p! C,3 C, | C,2 !fermata!z2 | =B,,3 B,, | =B,,2 !fermata!z2 |!pp! (=B,,2 C,2) | D,4"^," | %6
w: Do- mi-|ne.|Do- mi-|ne.|Je- *|su,|
 (C,2 D,2) | E,4 | G,4 |"^Cresc." B,,4 | E,4 | A,,4 |!sfz! !breath!E,4 | G,,4 |!p! C,4 | ^F,,4 | %16
w: Je- *|su|te|de-|si-|de-|ro,|de-|si-|de-|
 G,,2 z C, | (D,=B,,) C, z | z C, (D,=B,,) | !breath!C,3!sfz! C, | _D,2 D,2 | E,4 | (F,2 _D,2) | %23
w: ro, te-|vo- * lo,|te quae- *|ro, os-|ten- de|mi-|hi *|
 B,,>B,, =B,,2 | C,4 |!p! F,2 z F, | (F,E,) (F,E,) | =D,2 C,2 | =B,,3 B,, | C,3 =B,, | A,,4 | %31
w: fa- ci em|tu-|am, os-|ten- * de _|mi- hi|fa- ci|em *|tu-|
 !breath!G,,2 G,,2 | G,,4 | G,,4 | G,,4- | G,,4 |!pp! A,,3 A,, | =B,,2 C,2 | (G,4 | G,,4) | %40
w: am, et|sal-|vus|e|­|ro et|sal- vus|e-||
 C,2 z2 |] %41
w: ro.|

